X:589
T:
S:Uppt. efter »Florsen» i Burs.
R:schottis
O:Gotland, Burs
M:2/4
L:1/16
K:D
d2A2d2f2|a2d2 f4|e2A2c2e2|fgfe d2A2|
d2A2d2f2|a2d2 f4|e2A2c2e2|d2dd d4::
dcBA F2A2|E2G2 F2A2|dcBA F2A2|g2e2 d4:|

